!!!COM: Daser, Ludwig
!!!CDT: ~1526-1589/03/27
!!!OPR: Missa Preter rerum
!!!ONM: 2
!!!OTL: Gloria
!!!AGN: Mass; Gloria
!!!SCT: Das1002b
!!!SCA: Das1002b
!!!voices-OPR: 6
!!!voices: 6
**kern	**text	**kern	**text	**kern	**text	**kern	**text	**kern	**text	**kern	**text
*staff6	*staff6	*staff5	*staff5	*staff4	*staff4	*staff3	*staff3	*staff2	*staff2	*staff1	*staff1
*Ivox	*	*Ivox	*	*Ivox	*	*Ivox	*	*Ivox	*	*Ivox	*
*I"Bassus2	*	*I"Bassus1	*	*I"Tenor2	*	*I"Tenor1	*	*I"Contratenor	*	*I"Discantus	*
*I'B2	*	*I'B1	*	*I'T2	*	*I'T1	*	*I'Ct	*	*I'D	*
*>[A,B,C]	*>[A,B,C]	*>[A,B,C]	*>[A,B,C]	*>[A,B,C]	*>[A,B,C]	*>[A,B,C]	*>[A,B,C]	*>[A,B,C]	*>[A,B,C]	*>[A,B,C]	*>[A,B,C]
*>A	*>A	*>A	*>A	*>A	*>A	*>A	*>A	*>A	*>A	*>A	*>A
*clefF4	*	*clefF4	*	*clefGv2	*	*clefGv2	*	*clefGv2	*	*clefG2	*
*k[b-]	*	*k[b-]	*	*k[b-]	*	*k[b-]	*	*k[b-]	*	*k[b-]	*
*M2/1	*	*M2/1	*	*M2/1	*	*M2/1	*	*M2/1	*	*M2/1	*
*met(C|)	*	*met(C|)	*	*met(C|)	*	*met(C|)	*	*met(C|)	*	*met(C|)	*
!!section: Et in terra
!!!OMD: Et in terra
=1-	=1-	=1-	=1-	=1-	=1-	=1-	=1-	=1-	=1-	=1-	=1-
0r	.	0r	.	0r	.	0r	.	1.G	Et	[0g	Pre-
.	.	.	.	.	.	.	.	2A	in	.	.
=2	=2	=2	=2	=2	=2	=2	=2	=2	=2	=2	=2
0r	.	0r	.	0r	.	0r	.	1B-	ter-	0g]	.
.	.	.	.	.	.	.	.	1c	-ra	.	.
=3	=3	=3	=3	=3	=3	=3	=3	=3	=3	=3	=3
0r	.	0r	.	1.G	Et	0r	.	2B-	pax	0g	-ter
.	.	.	.	.	.	.	.	2G	ho-	.	.
.	.	.	.	.	.	.	.	2B-	-mi-	.	.
.	.	.	.	2A	in	.	.	2c	.	.	.
=4	=4	=4	=4	=4	=4	=4	=4	=4	=4	=4	=4
0r	.	0r	.	1B-	ter-	0r	.	1d	.	0g	re-
.	.	.	.	1c	-ra	.	.	1e-i	.	.	.
=5	=5	=5	=5	=5	=5	=5	=5	=5	=5	=5	=5
0r	.	0r	.	2B-	pax	0r	.	1d	.	0g	-rum
.	.	.	.	2G	ho-	.	.	.	.	.	.
.	.	.	.	2B-	-mi-	.	.	2G	.	.	.
.	.	.	.	2c	.	.	.	[2c	.	.	.
=6	=6	=6	=6	=6	=6	=6	=6	=6	=6	=6	=6
0r	.	0r	.	1d	.	0r	.	2c]	.	0g	se-
.	.	.	.	.	.	.	.	2B-	.	.	.
.	.	.	.	1e-i	.	.	.	2c	.	.	.
.	.	.	.	.	.	.	.	[2g	.	.	.
=7	=7	=7	=7	=7	=7	=7	=7	=7	=7	=7	=7
0r	.	0r	.	1.d	.	0r	.	2g]	.	0a	-ri-
.	.	.	.	.	.	.	.	4f	.	.	.
.	.	.	.	.	.	.	.	4e	.	.	.
.	.	.	.	.	.	.	.	2f	.	.	.
.	.	.	.	2A	.	.	.	2e	.	.	.
=8	=8	=8	=8	=8	=8	=8	=8	=8	=8	=8	=8
0r	.	0r	.	2B-	.	0r	.	2d	.	[0f	-em.
.	.	.	.	2.d	.	.	.	2.f	.	.	.
.	.	.	.	4c	.	.	.	4e	.	.	.
.	.	.	.	[2B-	.	.	.	[2d	.	.	.
=9	=9	=9	=9	=9	=9	=9	=9	=9	=9	=9	=9
0r	.	0r	.	2B-]	.	0r	.	2d]	.	0f]	.
.	.	.	.	4A	.	.	.	4c	.	.	.
.	.	.	.	4G	.	.	.	4B-	.	.	.
.	.	.	.	1A	-ni-	.	.	1c	-ni-	.	.
=10	=10	=10	=10	=10	=10	=10	=10	=10	=10	=10	=10
0r	.	1.GG	bo-	2G	-bus	[0G	Pre-	0d	-bus	0r	.
.	.	.	.	1B-	bo-	.	.	.	.	.	.
.	.	2AA	-ne	2c	-ne	.	.	.	.	.	.
=11	=11	=11	=11	=11	=11	=11	=11	=11	=11	=11	=11
0r	.	1BB-	vo-	1d	vo-	0G]	.	0r	.	0r	.
.	.	1C	-lun-	1e-i	-lun-	.	.	.	.	.	.
=12	=12	=12	=12	=12	=12	=12	=12	=12	=12	=12	=12
1.GG	bo-	2BB-	-ta-	1.d	-ta-	0G	-ter	0r	.	0r	.
.	.	2GG	.	.	.	.	.	.	.	.	.
.	.	2BB-	.	.	.	.	.	.	.	.	.
2AA	-ne	2C	.	2c	.	.	.	.	.	.	.
=13	=13	=13	=13	=13	=13	=13	=13	=13	=13	=13	=13
1BB-	vo-	1D	.	4B-	.	0G	re-	0r	.	0r	.
.	.	.	.	4A	.	.	.	.	.	.	.
.	.	.	.	1d	.	.	.	.	.	.	.
1C	-lun-	1E-i	.	.	.	.	.	.	.	.	.
.	.	.	.	2c	.	.	.	.	.	.	.
=14	=14	=14	=14	=14	=14	=14	=14	=14	=14	=14	=14
2BB-	-ta-	1D	.	1d	-tis.	0G	-rum	0r	.	0r	.
2GG	.	.	.	.	.	.	.	.	.	.	.
2BB-	.	2GG	.	1r	.	.	.	.	.	.	.
2C	.	[2C	.	.	.	.	.	.	.	.	.
=15	=15	=15	=15	=15	=15	=15	=15	=15	=15	=15	=15
1D	.	2C]	.	0r	.	0G	se-	0r	.	0r	.
.	.	2BB-	.	.	.	.	.	.	.	.	.
1E-i	.	2C	.	.	.	.	.	.	.	.	.
.	.	[2G	.	.	.	.	.	.	.	.	.
=16	=16	=16	=16	=16	=16	=16	=16	=16	=16	=16	=16
1.D	.	2G]	.	0r	.	0A	-ri-	0r	.	0r	.
.	.	4F	.	.	.	.	.	.	.	.	.
.	.	4E	.	.	.	.	.	.	.	.	.
.	.	2F	.	.	.	.	.	.	.	.	.
2AA	.	2E	.	.	.	.	.	.	.	.	.
=17	=17	=17	=17	=17	=17	=17	=17	=17	=17	=17	=17
2BB-	.	2D	.	0r	.	[0F	-em.	0r	.	0r	.
2.D	.	2.F	.	.	.	.	.	.	.	.	.
4C	.	4E	.	.	.	.	.	.	.	.	.
[2BB-	.	[2D	.	.	.	.	.	.	.	.	.
=18	=18	=18	=18	=18	=18	=18	=18	=18	=18	=18	=18
2BB-]	.	2D]	.	0r	.	0F]	.	0r	.	0r	.
4AA	.	4C	.	.	.	.	.	.	.	.	.
4GG	.	4BB-	.	.	.	.	.	.	.	.	.
1AA	.	1C	.	.	.	.	.	.	.	.	.
=19	=19	=19	=19	=19	=19	=19	=19	=19	=19	=19	=19
[0GG	-tis.	2D	-tis.	0G	Pre-	1.B-	Lau-	0r	.	1.g	Lau-
.	.	1G	Lau-	.	.	.	.	.	.	.	.
.	.	4F	.	.	.	2c	.	.	.	2a	.
.	.	4E	.	.	.	.	.	.	.	.	.
=20	=20	=20	=20	=20	=20	=20	=20	=20	=20	=20	=20
1GG]	.	1D	.	0G	-ter	1d	-da-	0r	.	1b-	-da-
1r	.	1C	-da-	.	.	1e-i	-mus	.	.	1cc	-mus
=21	=21	=21	=21	=21	=21	=21	=21	=21	=21	=21	=21
2r	.	1G	-mus	0G	re-	1d	te.	1.G	Lau-	2b-	te.
1G	Lau-	.	.	.	.	.	.	.	.	2g	Be-
.	.	[1GG	te.	.	.	1r	.	.	.	2b-	-ne-
4F	.	.	.	.	.	.	.	2A	.	2cc	-di-
4E	.	.	.	.	.	.	.	.	.	.	.
=22	=22	=22	=22	=22	=22	=22	=22	=22	=22	=22	=22
1D	.	1GG]	.	0G	-rum	0r	.	1B-	-da-	1dd	-ci-
1C	-da-	1r	.	.	.	.	.	1c	.	1ee-i	.
=23	=23	=23	=23	=23	=23	=23	=23	=23	=23	=23	=23
1G	-mus	0r	.	0G	se-	1d	Be-	2B-	.	2.dd	-mus
.	.	.	.	.	.	.	.	2G	.	.	.
.	.	.	.	.	.	.	.	.	.	4cc	.
1GG	te.	.	.	.	.	2d	-ne-	1g	-mus	4b-	.
.	.	.	.	.	.	.	.	.	.	4a	.
.	.	.	.	.	.	[2d	-di-	.	.	2b-	.
=24	=24	=24	=24	=24	=24	=24	=24	=24	=24	=24	=24
1D	Be-	1F	Be-	0A	-ri-	2d]	.	1f	te.	2a	.
.	.	.	.	.	.	4c	.	.	.	2.f	.
.	.	.	.	.	.	4B-	.	.	.	.	.
1D	-ne-	2F	-ne-	.	.	2A	.	2r	.	.	.
.	.	.	.	.	.	.	.	.	.	4g	.
.	.	[2D	-di-	.	.	2F	.	2f	Be-	2a	.
=25	=25	=25	=25	=25	=25	=25	=25	=25	=25	=25	=25
2D	-di-	4D]	.	0F	-em,	2A	.	2f	-ne-	0d	te.
.	.	4E	-ci-	.	.	.	.	.	.	.	.
2.BB-	-ci-	2F	-mus	.	.	2.B-	-ci-	2.d	-di-	.	.
.	.	1BB-	.	.	.	.	.	.	.	.	.
4C	.	.	.	.	.	4A	.	4e	.	.	.
2D	-mus	.	.	.	.	2F	-mus	2f	-ci-	.	.
=26	=26	=26	=26	=26	=26	=26	=26	=26	=26	=26	=26
[0GG	te.	2r	.	0B-	pa-	[0G	te.	2B-	-mus	1dd	Ad-
.	.	2B-	Ad-	.	.	.	.	2G	te.	.	.
.	.	2B-	-o-	.	.	.	.	2r	.	2dd	-o-
.	.	[2G	-ra-	.	.	.	.	[2g	Ad-	[2b-	-ra-
=27	=27	=27	=27	=27	=27	=27	=27	=27	=27	=27	=27
1GG]	.	4G]	.	0B-	-rit	1G]	.	4g]	.	4b-]	.
.	.	4A	.	.	.	.	.	4f	.	4cc	.
.	.	2B-	-mus	.	.	.	.	2d	.	2dd	.
1r	.	1E-	te.	.	.	1r	.	1e-	-o-	[1g	.
=28	=28	=28	=28	=28	=28	=28	=28	=28	=28	=28	=28
1G	Ad-	0r	.	0B-	De-	1r	.	1.d	-ra-	2g]	.
.	.	.	.	.	.	.	.	.	.	2.b-	.
2G	-o-	.	.	.	.	2r	.	.	.	.	.
.	.	.	.	.	.	.	.	.	.	4a	.
[2E-	-ra-	.	.	.	.	2G	Ad-	[2e-i	.	4g	.
.	.	.	.	.	.	.	.	.	.	4f	.
=29	=29	=29	=29	=29	=29	=29	=29	=29	=29	=29	=29
4E-]	.	1r	.	1B-	-um	4G	-o-	4e-]	.	1g	.
4F	.	.	.	.	.	4A	.	4d	.	.	.
2G	-mus	.	.	.	.	4B-	.	1d	.	.	.
.	.	.	.	.	.	4c	.	.	.	.	.
[1D	te.	1F	Glo-	[1A	et	2d	-ra-	.	.	2f	.
.	.	.	.	.	.	2d	-mus	4c	.	2d	-mus
.	.	.	.	.	.	.	.	4B-	.	.	.
=30	=30	=30	=30	=30	=30	=30	=30	=30	=30	=30	=30
1D]	.	2F	-ri-	0A]	.	1d	te.	2A	.	2.f	te.
.	.	2.D	-fi-	.	.	.	.	1d	.	.	.
.	.	.	.	.	.	.	.	.	.	4g	.
1r	.	.	.	.	.	1f	Glo-	.	.	1a	.
.	.	4E	.	.	.	.	.	.	.	.	.
.	.	2F	.	.	.	.	.	2c	-mus	.	.
=31	=31	=31	=31	=31	=31	=31	=31	=31	=31	=31	=31
2r	.	2.C	-ca-	[0G	ho-	1.e	-ri-	1c	te.	2r	.
2C	Glo-	.	.	.	.	.	.	.	.	1cc	Glo-
.	.	4D	.	.	.	.	.	.	.	.	.
2C	-ri-	4E	.	.	.	.	.	2r	.	.	.
.	.	4F	.	.	.	.	.	.	.	.	.
2BB-	-fi-	2G	.	.	.	2d	-fi-	2d	Glo-	2dd	-ri-
=32	=32	=32	=32	=32	=32	=32	=32	=32	=32	=32	=32
1C	-ca-	2E	-mus	0G]	.	2c	-ca-	2e	-ri-	2g	-fi-
.	.	2.G	te,	.	.	2e	-mus	2c	-fi-	1cc	-ca-
1GG	-mus,	.	.	.	.	1d	te,	1g	-ca-	.	.
.	.	4F	.	.	.	.	.	.	.	.	.
.	.	[2D	.	.	.	.	.	.	.	2b-	.
=33	=33	=33	=33	=33	=33	=33	=33	=33	=33	=33	=33
2r	.	2D]	.	[0F	-mi-	2r	.	2d	.	2a	.
2BB-	glo-	4D	glo-	.	.	2d	glo-	2.f	.	1b-	.
.	.	4E	.	.	.	.	.	.	.	.	.
2BB-	-ri-	4F	.	.	.	2d	-ri-	.	.	.	.
.	.	4G	.	.	.	.	.	4e	.	.	.
2AA	-fi-	2A	.	.	.	2c	-fi-	2c	.	2cc	.
=34	=34	=34	=34	=34	=34	=34	=34	=34	=34	=34	=34
1BB-	-ca-	2D	-ri-	0F_	.	2B-	-ca-	2d	.	2f	.
.	.	2.F	-fi-	.	.	2d	.	2B-	.	1b-	.
1FF	.	.	.	.	.	1c	-mus	1f	-mus	.	.
.	.	4E	.	.	.	.	.	.	.	.	.
.	.	2C	.	.	.	.	.	.	.	2a	-mus
=35	=35	=35	=35	=35	=35	=35	=35	=35	=35	=35	=35
1BB-	.	2D	-ca-	0F]	.	1B-	.	1d	te,	2b-	te,
.	.	2BB-	.	.	.	.	.	.	.	2dd	glo-
1AA	-mus	1C	-mus	.	.	1r	.	1r	.	2cc	-ri-
.	.	.	.	.	.	.	.	.	.	2a	-fi-
=36	=36	=36	=36	=36	=36	=36	=36	=36	=36	=36	=36
[0GG	te.	1D	te,	[0G	-nem.	2r	.	0r	.	4b-	-ca-
.	.	.	.	.	.	.	.	.	.	4a	.
.	.	.	.	.	.	2.B-	glo-	.	.	4g	.
.	.	.	.	.	.	.	.	.	.	4f	.
.	.	2r	.	.	.	.	.	.	.	2g	.
.	.	.	.	.	.	4A	.	.	.	.	.
.	.	[2B-	glo-	.	.	4G	.	.	.	2e-	.
.	.	.	.	.	.	4F	.	.	.	.	.
=37	=37	=37	=37	=37	=37	=37	=37	=37	=37	=37	=37
0GG_	.	4B-]	.	0G_	.	2G	.	2r	.	2d	.
.	.	4A	.	.	.	.	.	.	.	.	.
.	.	4G	.	.	.	2E-	.	2.B-	glo-	1g	.
.	.	4F	.	.	.	.	.	.	.	.	.
.	.	2G	.	.	.	2D	-ri-	.	.	.	.
.	.	.	.	.	.	.	.	4A	-ri-	.	.
.	.	2E-	.	.	.	2G	-fi-	4G	-fi-	2g	-mus
.	.	.	.	.	.	.	.	4F	.	.	.
=38	=38	=38	=38	=38	=38	=38	=38	=38	=38	=38	=38
0GG_	.	2D	-ri-	0G_	.	2.G	-ca-	2G	-ca-	[0g	te.
.	.	1G	-fi-	.	.	.	.	2E-	-mus	.	.
.	.	.	.	.	.	4A	.	.	.	.	.
.	.	.	.	.	.	4B-	.	1D	.	.	.
.	.	.	.	.	.	4c	.	.	.	.	.
.	.	4F	.	.	.	2d	.	.	.	.	.
.	.	4E	.	.	.	.	.	.	.	.	.
=39	=39	=39	=39	=39	=39	=39	=39	=39	=39	=39	=39
0GG]	.	4D	.	0G]	.	2G	.	1r	.	0g_	.
.	.	4C	.	.	.	.	.	.	.	.	.
.	.	2E-i	-ca-	.	.	1c	.	.	.	.	.
.	.	1D	-mus	.	.	.	.	1d	.	.	.
.	.	.	.	.	.	2Bni	-mus	.	.	.	.
=40	=40	=40	=40	=40	=40	=40	=40	=40	=40	=40	=40
1C	Gra-	1C	.	0r	.	0c	te	2e-i	ti-	0g]	.
.	.	.	.	.	.	.	.	2e-i	-as	.	.
2C	-ti-	1r	.	.	.	.	.	1e-i	a-	.	.
2C	-as	.	.	.	.	.	.	.	.	.	.
=41	=41	=41	=41	=41	=41	=41	=41	=41	=41	=41	=41
1D	a-	0r	.	1F	Gra-	0A	.	2d	-gi-	0r	.
.	.	.	.	.	.	.	.	1f	.	.	.
1D	-gi-	.	.	2F	-ti-	.	.	.	.	.	.
.	.	.	.	2F	-as	.	.	4e-i	.	.	.
.	.	.	.	.	.	.	.	4d	.	.	.
=42	=42	=42	=42	=42	=42	=42	=42	=42	=42	=42	=42
1E-i	-mus	1r	.	1G	a-	0r	.	2c	-mus	0r	.
.	.	.	.	.	.	.	.	1d	ti-	.	.
1E-i	ti-	2r	.	1G	-gi-	.	.	.	.	.	.
.	.	2C	Gra-	.	.	.	.	2c	.	.	.
=43	=43	=43	=43	=43	=43	=43	=43	=43	=43	=43	=43
1D	-bi	2F	-ti-	1A	-mus	2r	.	[0d	-bi,	1f	Gra-
.	.	2.D	.	.	.	2.f	Gra-	.	.	.	.
1r	.	.	.	1A	ti-	.	.	.	.	2f	-ti-
.	.	4C	.	.	.	4e	.	.	.	.	.
.	.	2D	.	.	.	4d	.	.	.	2f	-as
.	.	.	.	.	.	4c	.	.	.	.	.
=44	=44	=44	=44	=44	=44	=44	=44	=44	=44	=44	=44
1r	.	2GG	-as	1G	-bi	2B-	.	1d]	.	1g	a-
.	.	2.G	a-	.	.	2G	.	.	.	.	.
2r	.	.	.	1r	.	2B-	.	1r	.	1g	-gi-
.	.	4F	.	.	.	.	.	.	.	.	.
2C	pro-	2G	-gi-	.	.	2c	-ti-	.	.	.	.
=45	=45	=45	=45	=45	=45	=45	=45	=45	=45	=45	=45
2F	-pter	1D	-mus	0F	pro-	[0d	-as	2r	.	1a	-mus
2.D	ma-	.	.	.	.	.	.	2.f	a-	.	.
.	.	1r	.	.	.	.	.	.	.	1a	ti-
4C	.	.	.	.	.	.	.	4e	.	.	.
2D	.	.	.	.	.	.	.	4d	.	.	.
.	.	.	.	.	.	.	.	4c	.	.	.
=46	=46	=46	=46	=46	=46	=46	=46	=46	=46	=46	=46
2GG	.	1r	.	0G	-pter	1d]	.	2B-	.	1g	-bi
2.G	.	.	.	.	.	.	.	2G	-gi-	.	.
.	.	2r	.	.	.	1r	.	2B-	-mus	1r	.
4F	.	.	.	.	.	.	.	.	.	.	.
2G	.	2C	ti-	.	.	.	.	2c	ti-	.	.
=47	=47	=47	=47	=47	=47	=47	=47	=47	=47	=47	=47
1D	-gnam	2F	-bi	0A	ma-	2r	.	[0d	-bi	0f	pro-
.	.	2.D	pro-	.	.	2.f	a-	.	.	.	.
1r	.	.	.	.	.	.	.	.	.	.	.
.	.	4C	.	.	.	4e	.	.	.	.	.
.	.	2D	.	.	.	4d	.	.	.	.	.
.	.	.	.	.	.	4c	.	.	.	.	.
=48	=48	=48	=48	=48	=48	=48	=48	=48	=48	=48	=48
1r	.	2GG	-pter	1G	-gnam	2B-	-gi-	1d]	.	0g	-pter
.	.	2.G	ma-	.	.	2G	-mus	.	.	.	.
2r	.	.	.	1r	.	2B-	ti-	1r	.	.	.
.	.	4F	.	.	.	.	.	.	.	.	.
2C	glo-	2G	.	.	.	2c	.	.	.	.	.
=49	=49	=49	=49	=49	=49	=49	=49	=49	=49	=49	=49
2F	-ri-	1D	-gnam,	0F	glo-	0d	-bi	1f	pro-	0a	ma-
2.D	.	.	.	.	.	.	.	.	.	.	.
.	.	1r	.	.	.	.	.	2f	-pter	.	.
4C	.	.	.	.	.	.	.	.	.	.	.
2D	.	.	.	.	.	.	.	2f	ma-	.	.
=50	=50	=50	=50	=50	=50	=50	=50	=50	=50	=50	=50
2GG	-am	2r	.	2.G	-ri-	2r	.	2d	-gnam	1g	-gnam
2.G	tu-	2GG	pro-	.	.	1d	pro-	2g	glo-	.	.
.	.	.	.	4A	.	.	.	.	.	.	.
.	.	2GG	-pter	4B-	.	.	.	2g	-ri-	1r	.
4F	.	.	.	4c	.	.	.	.	.	.	.
2G	.	2GG	ma-	[2B-	-am	2d	-pter	[2g	-am	.	.
=51	=51	=51	=51	=51	=51	=51	=51	=51	=51	=51	=51
0D	.	1D	-gnam	2B-]	.	0d	ma-	2g]	.	1r	.
.	.	.	.	4A	.	.	.	4f#i	.	.	.
.	.	.	.	4G	.	.	.	4e	.	.	.
.	.	2r	.	1A	tu-	.	.	1f#i	.	1a	glo-
.	.	[2D	glo-	.	.	.	.	.	.	.	.
=52	=52	=52	=52	=52	=52	=52	=52	=52	=52	=52	=52
0GG	-am.	2D]	.	0G	-am.	1B-	-gnam	2g	.	1.b-	-ri-
.	.	2E	-ri-	.	.	.	.	2.G	tu-	.	.
.	.	2D	-am	.	.	1d	glo-	.	.	.	.
.	.	.	.	.	.	.	.	4A	.	.	.
.	.	[2G	tu-	.	.	.	.	4B-	.	4a	.
.	.	.	.	.	.	.	.	4c	.	4g	.
=53	=53	=53	=53	=53	=53	=53	=53	=53	=53	=53	=53
0r	.	2G]	.	0r	.	1d	-ri-	4d	.	2b-	.
.	.	.	.	.	.	.	.	4e	.	.	.
.	.	2D	.	.	.	.	.	2f	.	2a	.
.	.	2E	.	.	.	[1c	.	2g	.	2.cc	.
.	.	[2F	.	.	.	.	.	[2f	.	.	.
.	.	.	.	.	.	.	.	.	.	4b-	.
=54	=54	=54	=54	=54	=54	=54	=54	=54	=54	=54	=54
0r	.	2F]	.	0r	.	2c]	.	4f]	.	2a	-am
.	.	.	.	.	.	.	.	4e	.	.	.
.	.	2G	.	.	.	2B-	-am	2.d	.	1g	tu-
.	.	1D	.	.	.	1A	tu-	.	.	.	.
.	.	.	.	.	.	.	.	4c	.	.	.
.	.	.	.	.	.	.	.	2A	.	2f#i	.
=55	=55	=55	=55	=55	=55	=55	=55	=55	=55	=55	=55
1GG	Do-	1GG	-am.	0r	.	[0G	-am.	2.B-	-am.	[0g	-am.
.	.	.	.	.	.	.	.	4c	.	.	.
2GG	-mi-	1r	.	.	.	.	.	2d	Do-	.	.
[2C	-ne	.	.	.	.	.	.	[2e-i	.	.	.
=56	=56	=56	=56	=56	=56	=56	=56	=56	=56	=56	=56
2C]	.	0r	.	0r	.	0G_	.	2e-]	.	0g_	.
2BB-	De-	.	.	.	.	.	.	1d	.	.	.
2C	-us,	.	.	.	.	.	.	.	.	.	.
2E-i	Rex	.	.	.	.	.	.	2c	-mi-	.	.
=57	=57	=57	=57	=57	=57	=57	=57	=57	=57	=57	=57
2D	ce-	1GG	Do-	0r	.	0G_	.	2d	-ne	0g]	.
2.G	-le-	.	.	.	.	.	.	1B-	De-	.	.
.	.	2GG	-mi-	.	.	.	.	.	.	.	.
4F	.	.	.	.	.	.	.	.	.	.	.
[2E-i	.	[2C	-ne	.	.	.	.	2c	.	.	.
=58	=58	=58	=58	=58	=58	=58	=58	=58	=58	=58	=58
2E-]	.	2C]	.	0r	.	0G]	.	1G	-us	0r	.
2D	.	2BB-	De-	.	.	.	.	.	.	.	.
2E-i	.	2C	-us,	.	.	.	.	1r	.	.	.
2G	.	2E-	Rex	.	.	.	.	.	.	.	.
=59	=59	=59	=59	=59	=59	=59	=59	=59	=59	=59	=59
2F	.	2D	ce-	0r	.	0r	.	0r	.	1d	Do-
1B-	.	1G	-le-	.	.	.	.	.	.	.	.
.	.	.	.	.	.	.	.	.	.	2d	-mi-
4A	.	4F	.	.	.	.	.	.	.	[2g	-ne
4G	.	4E-i	.	.	.	.	.	.	.	.	.
=60	=60	=60	=60	=60	=60	=60	=60	=60	=60	=60	=60
1A	.	1D	.	1D	Do-	0r	.	0r	.	2g]	.
.	.	.	.	.	.	.	.	.	.	2f	De-
2G	.	1GG	-stis,	2D	-mi-	.	.	.	.	2g	-us,
2GG	.	.	.	[2G	-ne	.	.	.	.	2b-	Rex
=61	=61	=61	=61	=61	=61	=61	=61	=61	=61	=61	=61
1D	.	1r	.	2G]	.	0r	.	1r	.	2a	ce-
.	.	.	.	2F	De-	.	.	.	.	2a	-le-
1GG	-stis,	2r	.	4G	-us,	.	.	1G	De-	[1g	-stis,
.	.	.	.	4A	.	.	.	.	.	.	.
.	.	2G	De-	4B-	.	.	.	.	.	.	.
.	.	.	.	4c	.	.	.	.	.	.	.
=62	=62	=62	=62	=62	=62	=62	=62	=62	=62	=62	=62
1r	.	2G	-us	2d	Rex	1r	.	2G	-us	0g_	.
.	.	2C	.	2e-i	ce-	.	.	1c	Pa-	.	.
2r	.	1G	Pa-	1d	-le-	1G	De-	.	.	.	.
2G	De-	.	.	.	.	.	.	2B-	.	.	.
=63	=63	=63	=63	=63	=63	=63	=63	=63	=63	=63	=63
2G	-us	1C	-ter	1c	-stis,	2G	-us	2c	.	1g]	.
2C	Pa-	.	.	.	.	1c	Pa-	2e-i	.	.	.
1G	.	1r	.	2r	.	.	.	1d	-ter	1g	De-
.	.	.	.	2G	De-	2B-	.	.	.	.	.
=64	=64	=64	=64	=64	=64	=64	=64	=64	=64	=64	=64
1C	-ter.	0r	.	2G	-us	2c	-ter	2r	.	2g	-us
.	.	.	.	2C	.	2e-i	om-	2.g	om-	1cc	Pa-
1r	.	.	.	1G	Pa-	2d	-ni-	.	.	.	.
.	.	.	.	.	.	.	.	4f	.	.	.
.	.	.	.	.	.	2d	-po-	2d	.	2b-	.
=65	=65	=65	=65	=65	=65	=65	=65	=65	=65	=65	=65
0r	.	0r	.	2C	-ter	1c	-tens,	2e	.	2cc	-ter
.	.	.	.	2c	om-	.	.	2.g	-ni-	2ee-i	om-
.	.	.	.	2B-	-ni-	2r	.	.	.	2dd	-ni-
.	.	.	.	.	.	.	.	4f	.	.	.
.	.	.	.	2A	.	2F	om-	[2f	.	[2cc	.
=66	=66	=66	=66	=66	=66	=66	=66	=66	=66	=66	=66
0r	.	0r	.	1G	-po-	1B-	-ni-	2f]	.	4cc]	.
.	.	.	.	.	.	.	.	.	.	4b-	.
.	.	.	.	.	.	.	.	2e	.	1b-	-po-
.	.	.	.	1F	-tens.	1c	-po-	1f	-po-	.	.
.	.	.	.	.	.	.	.	.	.	2a	.
=67	=67	=67	=67	=67	=67	=67	=67	=67	=67	=67	=67
1GG	Do-	1G	Do-	1B-	Do-	1B-	-tens.	[0d	-tens.	0b-	-tens.
2BB-	-mi-	2F	-mi-	2B-	-mi-	1r	.	.	.	.	.
2GG	-ne	[2G	-ne	2B-	-ne	.	.	.	.	.	.
=68	=68	=68	=68	=68	=68	=68	=68	=68	=68	=68	=68
2.BB-	Fi-	2G]	.	1B-	Fi-	0r	.	1d]	.	0r	.
.	.	4F	.	.	.	.	.	.	.	.	.
4C	.	4E	.	.	.	.	.	.	.	.	.
2D	.	2F	.	1B-	-li	.	.	1r	.	.	.
[2E-	.	[2G	Fi-	.	.	.	.	.	.	.	.
=69	=69	=69	=69	=69	=69	=69	=69	=69	=69	=69	=69
2E-]	.	2G]	.	1B-	u-	0r	.	0r	.	0r	.
2D	-li	2F	-li	.	.	.	.	.	.	.	.
2C	u-	2E	u-	1A	-ni-	.	.	.	.	.	.
2D	-ni-	2F	-ni-	.	.	.	.	.	.	.	.
=70	=70	=70	=70	=70	=70	=70	=70	=70	=70	=70	=70
2BB-	-ge-	2D	-ge-	1G	-ge-	0r	.	0r	.	0r	.
2C	.	2E	.	.	.	.	.	.	.	.	.
1AA	-ni-	1C	-ni-	1F#i	-ni-	.	.	.	.	.	.
=71	=71	=71	=71	=71	=71	=71	=71	=71	=71	=71	=71
1GG	-te	1D	-te	1G	-te	2r	.	1g	Do-	1b-	Do-
.	.	.	.	.	.	2G	Do-	.	.	.	.
1r	.	1r	.	1r	.	2B-	-mi-	2f	-mi-	2b-	-mi-
.	.	.	.	.	.	2G	-ne	[2g	-ne	2b-	-ne
=72	=72	=72	=72	=72	=72	=72	=72	=72	=72	=72	=72
0r	.	0r	.	0r	.	2.B-	Fi-	2g]	.	1b-	Fi-
.	.	.	.	.	.	.	.	4f	.	.	.
.	.	.	.	.	.	4c	.	4e	.	.	.
.	.	.	.	.	.	2d	.	2f	.	1b-	-li
.	.	.	.	.	.	[2e-i	.	[2g	Fi-	.	.
=73	=73	=73	=73	=73	=73	=73	=73	=73	=73	=73	=73
0r	.	0r	.	0r	.	2e-]	.	2g]	.	1b-	u-
.	.	.	.	.	.	2d	-li	2f	-li	.	.
.	.	.	.	.	.	2c	u-	2e	u-	1a	-ni-
.	.	.	.	.	.	2d	-ni-	2f	-ni-	.	.
=74	=74	=74	=74	=74	=74	=74	=74	=74	=74	=74	=74
0r	.	0r	.	1r	.	2B-	-ge-	2d	-ge-	1g	-ge-
.	.	.	.	.	.	2c	.	2e	.	.	.
.	.	.	.	1A	Je-	1A	-ni-	1c	-ni-	1f#i	-ni-
=75	=75	=75	=75	=75	=75	=75	=75	=75	=75	=75	=75
0GG	Je-	0D	Je-	1B-	-su	0G	-te	0d	-te	0g	-te,
.	.	.	.	2G	Chri-	.	.	.	.	.	.
.	.	.	.	[2B-	.	.	.	.	.	.	.
=76	=76	=76	=76	=76	=76	=76	=76	=76	=76	=76	=76
0D	-su	0F	-su	2B-]	.	0r	.	0d	Je-	0f	Je-
.	.	.	.	4A	.	.	.	.	.	.	.
.	.	.	.	4G	.	.	.	.	.	.	.
.	.	.	.	2A	.	.	.	.	.	.	.
.	.	.	.	2F	.	.	.	.	.	.	.
=77	=77	=77	=77	=77	=77	=77	=77	=77	=77	=77	=77
1.C	Chri-	2E	Chri-	0c	-ste,	0r	.	0e	-su	0g	-su
.	.	2.G	.	.	.	.	.	.	.	.	.
.	.	4F	.	.	.	.	.	.	.	.	.
2BB-	.	4E	.	.	.	.	.	.	.	.	.
.	.	4D	.	.	.	.	.	.	.	.	.
=78	=78	=78	=78	=78	=78	=78	=78	=78	=78	=78	=78
1AA	.	[0C	.	1.c	Je-	1r	.	1e	Chri-	0a	Chri-
1FF	.	.	.	.	.	1F	Je-	1f	.	.	.
.	.	.	.	2c	-su	.	.	.	.	.	.
=79	=79	=79	=79	=79	=79	=79	=79	=79	=79	=79	=79
1C	.	1C]	.	1c	Chri-	0G	-su	1e	-ste,	1g	-ste,
1GG	.	[1D	.	1B-	-ste,	.	.	[1d	Je-	1b-	Chri-
=80	=80	=80	=80	=80	=80	=80	=80	=80	=80	=80	=80
0D	.	2D]	.	1.d	Je-	0A	Chri-	2d]	.	2a	.
.	.	2E	.	.	.	.	.	2d	-su	1g	.
.	.	1F	.	.	.	.	.	1d	Chri-	.	.
.	.	.	.	2d	-su	.	.	.	.	2f#i	.
=81	=81	=81	=81	=81	=81	=81	=81	=81	=81	=81	=81
[0GGl	-ste.	1D	-ste,	1d	Chri-	[0Gl	-ste.	2B-	-ste,	[0gl	-ste.
.	.	.	.	.	.	.	.	1d	Je-	.	.
.	.	2r	.	[1B-	.	.	.	.	.	.	.
.	.	[2G	Je-	.	.	.	.	2d	-su	.	.
=82	=82	=82	=82	=82	=82	=82	=82	=82	=82	=82	=82
0GG_	.	2G]	.	2B-]	.	0G_	.	1d	Chri-	0g_	.
.	.	2G	-su	4A	.	.	.	.	.	.	.
.	.	.	.	4G	.	.	.	.	.	.	.
.	.	1G	Chri-	2.B-	.	.	.	[1B-l	.	.	.
.	.	.	.	4c	.	.	.	.	.	.	.
=83	=83	=83	=83	=83	=83	=83	=83	=83	=83	=83	=83
0GG]	.	0Dl	-ste.	0dl	-ste.	0G]	.	0B-]	.	0g]	.
!!LO:LB:i:g=z
=84||	=84||	=84||	=84||	=84||	=84||	=84||	=84||	=84||	=84||	=84||	=84||
*>B	*>B	*>B	*>B	*>B	*>B	*>B	*>B	*>B	*>B	*>B	*>B
*clefF4	*	*clefF4	*	*clefGv2	*	*clefGv2	*	*clefGv2	*	*clefG2	*
*k[b-]	*	*k[b-]	*	*k[b-]	*	*k[b-]	*	*k[b-]	*	*k[b-]	*
*M2/1	*	*M2/1	*	*M2/1	*	*M2/1	*	*M2/1	*	*M2/1	*
*met(C|)	*	*met(C|)	*	*met(C|)	*	*met(C|)	*	*met(C|)	*	*met(C|)	*
!!section: Domine Deus
!!!OMD: Domine Deus
0r	.	0r	.	0r	.	0r	.	0r	.	1a	Do-
.	.	.	.	.	.	.	.	.	.	2d	-mi-
.	.	.	.	.	.	.	.	.	.	[2b-	-ne
=85	=85	=85	=85	=85	=85	=85	=85	=85	=85	=85	=85
0r	.	0r	.	0r	.	0r	.	0r	.	4b-]	.
.	.	.	.	.	.	.	.	.	.	4a	.
.	.	.	.	.	.	.	.	.	.	1g	.
.	.	.	.	.	.	.	.	.	.	4f	.
.	.	.	.	.	.	.	.	.	.	4e	.
=86	=86	=86	=86	=86	=86	=86	=86	=86	=86	=86	=86
0r	.	0r	.	0r	.	0r	.	1d	-Do-	1f	.
.	.	.	.	.	.	.	.	2G	-mi-	[1g	.
.	.	.	.	.	.	.	.	[2e-	-ne	.	.
=87	=87	=87	=87	=87	=87	=87	=87	=87	=87	=87	=87
0r	.	0r	.	0r	.	0r	.	4e-]	.	2g]	.
.	.	.	.	.	.	.	.	4d	.	.	.
.	.	.	.	.	.	.	.	1c	.	1a	De-
.	.	.	.	.	.	.	.	4B-	.	4g	.
.	.	.	.	.	.	.	.	4A	.	4f	.
=88	=88	=88	=88	=88	=88	=88	=88	=88	=88	=88	=88
1r	.	0r	.	0r	.	0r	.	4B-	.	2g	.
.	.	.	.	.	.	.	.	4A	.	.	.
.	.	.	.	.	.	.	.	1d	De-	2f	.
1A	Do-	.	.	.	.	.	.	.	.	1e	.
.	.	.	.	.	.	.	.	2c#i	.	.	.
=89	=89	=89	=89	=89	=89	=89	=89	=89	=89	=89	=89
2D	-mi-	0r	.	0r	.	0r	.	2.d	-us,	0d	-us,
2.B-	-ne	.	.	.	.	.	.	.	.	.	.
.	.	.	.	.	.	.	.	4e	.	.	.
.	.	.	.	.	.	.	.	2f	.	.	.
4A	.	.	.	.	.	.	.	.	.	.	.
[2G	De-	.	.	.	.	.	.	2g	.	.	.
=90	=90	=90	=90	=90	=90	=90	=90	=90	=90	=90	=90
2G]	.	0r	.	0r	.	0r	.	2d	A-	1r	.
4F	.	.	.	.	.	.	.	2.f	.	.	.
4E	.	.	.	.	.	.	.	.	.	.	.
1F	.	.	.	.	.	.	.	.	.	1a	A-
.	.	.	.	.	.	.	.	4e	.	.	.
.	.	.	.	.	.	.	.	4d	.	.	.
.	.	.	.	.	.	.	.	4c	.	.	.
=91	=91	=91	=91	=91	=91	=91	=91	=91	=91	=91	=91
0G	-us,	0r	.	0r	.	0r	.	2B-	-gnus	2d	-gnus
.	.	.	.	.	.	.	.	2.d	De-	2.b-	De-
.	.	.	.	.	.	.	.	4c	.	4a	.
.	.	.	.	.	.	.	.	[2B-	.	[2g	.
=92	=92	=92	=92	=92	=92	=92	=92	=92	=92	=92	=92
1r	.	0r	.	0r	.	0r	.	2B-]	.	2g]	.
.	.	.	.	.	.	.	.	4A	.	4f#i	.
.	.	.	.	.	.	.	.	4G	.	4e	.
1D	A-	.	.	.	.	.	.	1A	.	1f#i	.
=93	=93	=93	=93	=93	=93	=93	=93	=93	=93	=93	=93
2GG	-gnus	0r	.	0r	.	0r	.	2.G	.	0g	-i,
2.E-	De-	.	.	.	.	.	.	.	.	.	.
.	.	.	.	.	.	.	.	4A	.	.	.
.	.	.	.	.	.	.	.	2B-	.	.	.
4D	.	.	.	.	.	.	.	.	.	.	.
[2C	.	.	.	.	.	.	.	2c	.	.	.
=94	=94	=94	=94	=94	=94	=94	=94	=94	=94	=94	=94
2C]	.	0r	.	0r	.	0r	.	2G	.	2r	.
4BB-	.	.	.	.	.	.	.	1B-	.	1d	De-
4AA	.	.	.	.	.	.	.	.	.	.	.
2BB-	.	.	.	.	.	.	.	.	.	.	.
2C	.	.	.	.	.	.	.	4A	.	2e	.
.	.	.	.	.	.	.	.	4G	.	.	.
=95	=95	=95	=95	=95	=95	=95	=95	=95	=95	=95	=95
2D	.	0r	.	0r	.	0r	.	2F	.	2f	.
2BB-	.	.	.	.	.	.	.	1B-	.	1g	.
1C	.	.	.	.	.	.	.	.	.	.	.
.	.	.	.	.	.	.	.	2A	.	4f	.
.	.	.	.	.	.	.	.	.	.	4e	.
=96	=96	=96	=96	=96	=96	=96	=96	=96	=96	=96	=96
0BB-	-i,	0r	.	0r	.	0r	.	[0B-	-i,	2d	-i,
.	.	.	.	.	.	.	.	.	.	2dd	Fi-
.	.	.	.	.	.	.	.	.	.	2b-	-li-
.	.	.	.	.	.	.	.	.	.	[2dd	.
=97	=97	=97	=97	=97	=97	=97	=97	=97	=97	=97	=97
2r	.	0r	.	0r	.	0r	.	0B-]	.	4dd]	.
.	.	.	.	.	.	.	.	.	.	4cc	.
2B-	Fi-	.	.	.	.	.	.	.	.	1b-	.
2G	-li-	.	.	.	.	.	.	.	.	.	.
[2B-	.	.	.	.	.	.	.	.	.	4a	.
.	.	.	.	.	.	.	.	.	.	4g	.
=98	=98	=98	=98	=98	=98	=98	=98	=98	=98	=98	=98
4B-]	.	0r	.	0r	.	0r	.	2r	.	2f	-us
4A	.	.	.	.	.	.	.	.	.	.	.
1G	.	.	.	.	.	.	.	2d	Fi-	2g	Pa-
.	.	.	.	.	.	.	.	2B-	-li-	[1d	-tris,
4F	.	.	.	.	.	.	.	[2d	.	.	.
4E	.	.	.	.	.	.	.	.	.	.	.
=99	=99	=99	=99	=99	=99	=99	=99	=99	=99	=99	=99
2D	-us	0r	.	0r	.	0r	.	4d]	.	1d]	.
.	.	.	.	.	.	.	.	4c	.	.	.
2GG	Pa-	.	.	.	.	.	.	1B-	.	.	.
2BB-	.	.	.	.	.	.	.	.	.	1r	.
2C	.	.	.	.	.	.	.	4A	.	.	.
.	.	.	.	.	.	.	.	4G	.	.	.
=100	=100	=100	=100	=100	=100	=100	=100	=100	=100	=100	=100
2.D	.	0r	.	0r	.	0r	.	2F	-us	0a	Fi-
.	.	.	.	.	.	.	.	2.f	Pa-	.	.
4C	.	.	.	.	.	.	.	.	.	.	.
4D	.	.	.	.	.	.	.	.	.	.	.
4E	.	.	.	.	.	.	.	4e	.	.	.
[2F	.	.	.	.	.	.	.	2c	.	.	.
=101	=101	=101	=101	=101	=101	=101	=101	=101	=101	=101	=101
2F]	.	0r	.	0r	.	0r	.	2d	.	1g	-li-
2E	.	.	.	.	.	.	.	2e	.	.	.
2F	.	.	.	.	.	.	.	2c	.	1a	-us
2A	.	.	.	.	.	.	.	[2f	.	.	.
=102	=102	=102	=102	=102	=102	=102	=102	=102	=102	=102	=102
1G	.	0r	.	0r	.	0r	.	2f]	.	1b-	Pa-
.	.	.	.	.	.	.	.	2e	.	.	.
[1F	.	.	.	.	.	.	.	2.f	.	[1a	.
.	.	.	.	.	.	.	.	8eL	.	.	.
.	.	.	.	.	.	.	.	8dJ	.	.	.
=103	=103	=103	=103	=103	=103	=103	=103	=103	=103	=103	=103
1F]	.	0r	.	0r	.	0r	.	2c	.	2a]	.
.	.	.	.	.	.	.	.	1d	.	2f	.
1E	-tris.	.	.	.	.	.	.	.	.	1g	.
.	.	.	.	.	.	.	.	2c#i	.	.	.
=104	=104	=104	=104	=104	=104	=104	=104	=104	=104	=104	=104
2r	.	0r	.	0r	.	0r	.	1d	-tris.	1f	-tris.
1D	Qui	.	.	.	.	.	.	.	.	.	.
.	.	.	.	.	.	.	.	[1A	Qui	2r	.
2D	tol-	.	.	.	.	.	.	.	.	2f	Qui
=105	=105	=105	=105	=105	=105	=105	=105	=105	=105	=105	=105
2C	-lis	0r	.	0r	.	0r	.	1A]	.	2e	tol-
2D	pec-	.	.	.	.	.	.	.	.	2f	-lis
2BB-	-ca-	.	.	.	.	.	.	1G	tol-	2g	pec-
[2C	.	.	.	.	.	.	.	.	.	[2e	-ca-
=106	=106	=106	=106	=106	=106	=106	=106	=106	=106	=106	=106
2C]	.	0r	.	0r	.	0r	.	1A	-lis	2e]	.
2D	.	.	.	.	.	.	.	.	.	2f	.
2GG	-ta	.	.	.	.	.	.	1B-	pec-	2d	-ta
[2D	mun-	.	.	.	.	.	.	.	.	[2f	mun-
=107	=107	=107	=107	=107	=107	=107	=107	=107	=107	=107	=107
2D]	.	0r	.	0r	.	0r	.	1.A	-ca-	2f]	.
2C	.	.	.	.	.	.	.	.	.	2e	.
2F	.	.	.	.	.	.	.	.	.	2c	.
2D	.	.	.	.	.	.	.	2F	-ta	[2f	.
=108	=108	=108	=108	=108	=108	=108	=108	=108	=108	=108	=108
1C	-di,	0r	.	0r	.	0r	.	1G	mun-	2f]	.
.	.	.	.	.	.	.	.	.	.	2e	.
2r	.	.	.	.	.	.	.	1F	-di,	2f	-di,
2BB-	pec-	.	.	.	.	.	.	.	.	2d	pec-
=109	=109	=109	=109	=109	=109	=109	=109	=109	=109	=109	=109
4BB-	-ca-	0r	.	0r	.	0r	.	0d	qui	2.f	-ca-
4C	.	.	.	.	.	.	.	.	.	.	.
4D	.	.	.	.	.	.	.	.	.	.	.
4E	.	.	.	.	.	.	.	.	.	4g	.
2F	.	.	.	.	.	.	.	.	.	2a	.
2G	.	.	.	.	.	.	.	.	.	2b-	.
=110	=110	=110	=110	=110	=110	=110	=110	=110	=110	=110	=110
2E	.	0r	.	0r	.	0r	.	1c	tol-	2cc	.
1F	.	.	.	.	.	.	.	.	.	1a	.
.	.	.	.	.	.	.	.	1d	-lis	.	.
2G	.	.	.	.	.	.	.	.	.	2b-	.
=111	=111	=111	=111	=111	=111	=111	=111	=111	=111	=111	=111
2C	-ta	0r	.	0r	.	0r	.	1e-	pec-	2g	-ta
1G	mun-	.	.	.	.	.	.	.	.	1b-	mun-
.	.	.	.	.	.	.	.	[1d	-ca-	.	.
2F	.	.	.	.	.	.	.	.	.	2a	.
=112	=112	=112	=112	=112	=112	=112	=112	=112	=112	=112	=112
2B-	.	0r	.	0r	.	0r	.	2d]	.	2f	.
2G	.	.	.	.	.	.	.	2B-	-ta	1b-	.
1F	-di,	.	.	.	.	.	.	1c	mun-	.	.
.	.	.	.	.	.	.	.	.	.	2a	.
=113	=113	=113	=113	=113	=113	=113	=113	=113	=113	=113	=113
2r	.	0r	.	0r	.	0r	.	[0B-	-di,	0b-	-di,
2.G	mi-	.	.	.	.	.	.	.	.	.	.
4F	.	.	.	.	.	.	.	.	.	.	.
2D	.	.	.	.	.	.	.	.	.	.	.
=114	=114	=114	=114	=114	=114	=114	=114	=114	=114	=114	=114
2.E-	-se-	0r	.	0r	.	0r	.	0B-]	.	2r	.
.	.	.	.	.	.	.	.	.	.	2.g	mi-
4D	.	.	.	.	.	.	.	.	.	.	.
1BB-	.	.	.	.	.	.	.	.	.	.	.
.	.	.	.	.	.	.	.	.	.	4f	.
.	.	.	.	.	.	.	.	.	.	2d	.
=115	=115	=115	=115	=115	=115	=115	=115	=115	=115	=115	=115
1C	-re-	0r	.	0r	.	0r	.	2r	.	2.e-	-se-
.	.	.	.	.	.	.	.	2.g	mi-	.	.
.	.	.	.	.	.	.	.	.	.	4d	.
1GG	-re	.	.	.	.	.	.	.	.	2B-	.
.	.	.	.	.	.	.	.	4f	.	.	.
.	.	.	.	.	.	.	.	2d	.	[2b-	-re-
=116	=116	=116	=116	=116	=116	=116	=116	=116	=116	=116	=116
1r	.	0r	.	0r	.	0r	.	2.e-	-se-	2b-]	.
.	.	.	.	.	.	.	.	.	.	2cc	.
.	.	.	.	.	.	.	.	4d	.	.	.
2r	.	.	.	.	.	.	.	2B-	.	2g	.
[2BB-	no-	.	.	.	.	.	.	[2d	-re-	[2b-	.
=117	=117	=117	=117	=117	=117	=117	=117	=117	=117	=117	=117
4BB-]	.	0r	.	0r	.	0r	.	4d]	.	4b-]	.
4C	.	.	.	.	.	.	.	4c	.	4a	.
2D	.	.	.	.	.	.	.	2A	.	2f	.
4GG	.	.	.	.	.	.	.	2.B-	-re	2g	-re
4AA	.	.	.	.	.	.	.	.	.	.	.
4BB-	.	.	.	.	.	.	.	.	.	4d	no-
4C	.	.	.	.	.	.	.	4A	.	4e	.
=118	=118	=118	=118	=118	=118	=118	=118	=118	=118	=118	=118
2D	.	0r	.	0r	.	0r	.	2F	.	4f	.
.	.	.	.	.	.	.	.	.	.	4g	.
2C	.	.	.	.	.	.	.	2.c	no-	2.a	.
1E-i	.	.	.	.	.	.	.	.	.	.	.
.	.	.	.	.	.	.	.	4B-	.	4g	.
.	.	.	.	.	.	.	.	2G	.	[2g	.
=119	=119	=119	=119	=119	=119	=119	=119	=119	=119	=119	=119
1D	.	0r	.	0r	.	0r	.	1A	.	2g]	.
.	.	.	.	.	.	.	.	.	.	2f#i	.
1GGl	-bis.	.	.	.	.	.	.	1Gl	-bis.	1gl	-bis.
!!LO:LB:i:g=z
=120||	=120||	=120||	=120||	=120||	=120||	=120||	=120||	=120||	=120||	=120||	=120||
*>C	*>C	*>C	*>C	*>C	*>C	*>C	*>C	*>C	*>C	*>C	*>C
*clefF4	*	*clefF4	*	*clefGv2	*	*clefGv2	*	*clefGv2	*	*clefG2	*
*k[b-]	*	*k[b-]	*	*k[b-]	*	*k[b-]	*	*k[b-]	*	*k[b-]	*
*M2/1	*	*M2/1	*	*M2/1	*	*M2/1	*	*M2/1	*	*M2/1	*
*met(C|)	*	*met(C|)	*	*met(C|)	*	*met(C|)	*	*met(C|)	*	*met(C|)	*
!!section: Qui tollis...suscipe
!!!OMD: Qui tollis...suscipe
1r	.	2.BB-	Qui	1r	.	0r	.	0r	.	0r	.
.	.	4C	.	.	.	.	.	.	.	.	.
[1BB-	Qui	2D	tol-	2.B-	Qui	.	.	.	.	.	.
.	.	2GG	-lis	.	.	.	.	.	.	.	.
.	.	.	.	4c	.	.	.	.	.	.	.
=121	=121	=121	=121	=121	=121	=121	=121	=121	=121	=121	=121
1BB-]	.	2.BB-	pec-	2d	tol-	0r	.	0r	.	0r	.
.	.	.	.	2G	-lis	.	.	.	.	.	.
.	.	4C	.	.	.	.	.	.	.	.	.
1BB-	tol-	2D	-ca-	2.B-	pec-	.	.	.	.	.	.
.	.	2GG	-ta	.	.	.	.	.	.	.	.
.	.	.	.	4c	.	.	.	.	.	.	.
=122	=122	=122	=122	=122	=122	=122	=122	=122	=122	=122	=122
1BB-	-lis	2.B-	mun-	2d	-ca-	0r	.	0r	.	0r	.
.	.	.	.	2D	-ta	.	.	.	.	.	.
.	.	4A	.	.	.	.	.	.	.	.	.
1C	pec-	2G	.	4E	mun-	.	.	.	.	.	.
.	.	.	.	4F	.	.	.	.	.	.	.
.	.	2E	.	4G	.	.	.	.	.	.	.
.	.	.	.	4A	.	.	.	.	.	.	.
=123	=123	=123	=123	=123	=123	=123	=123	=123	=123	=123	=123
2BB-	-ca-	2F	.	4B-	.	0r	.	0r	.	0r	.
.	.	.	.	4c	.	.	.	.	.	.	.
1BB-	-ta	1D	.	1d	.	.	.	.	.	.	.
4AA	.	[2G	.	4c	.	.	.	.	.	.	.
4GG	.	.	.	4B-	.	.	.	.	.	.	.
=124	=124	=124	=124	=124	=124	=124	=124	=124	=124	=124	=124
1AA	mun-	2G]	.	1c	-di,	0r	.	1r	.	1r	.
.	.	2F#i	.	.	.	.	.	.	.	.	.
[1GG	-di,	[1G	-di,	2r	.	.	.	2.B-	su-	[1b-	su-
.	.	.	.	[2B-	su-	.	.	.	.	.	.
.	.	.	.	.	.	.	.	4c	.	.	.
=125	=125	=125	=125	=125	=125	=125	=125	=125	=125	=125	=125
0GG_	.	0G_	.	4B-]	.	2.B-	su-	2d	-sci-	1b-]	.
.	.	.	.	4c	.	.	.	.	.	.	.
.	.	.	.	2d	-sci-	.	.	2G	-pe,	.	.
.	.	.	.	.	.	4c	.	.	.	.	.
.	.	.	.	2G	-pe	2d	-sci-	2.B-	su-	1b-	-sci-
.	.	.	.	[2B-	de-	2G	-pe	.	.	.	.
.	.	.	.	.	.	.	.	4c	.	.	.
=126	=126	=126	=126	=126	=126	=126	=126	=126	=126	=126	=126
1GG]	.	1G]	.	4B-]	.	2.B-	de-	2d	-sci-	0b-	-pe
.	.	.	.	4c	-pre-	.	.	.	.	.	.
.	.	.	.	2d	-ca-	.	.	2G	-pe	.	.
.	.	.	.	.	.	4c	-pre-	.	.	.	.
1r	.	1r	.	2G	-ti-	2d	-ca-	2r	.	.	.
.	.	.	.	[2d	-o-	2G	-ti-	[2g	de-	.	.
=127	=127	=127	=127	=127	=127	=127	=127	=127	=127	=127	=127
0r	.	0r	.	2d]	.	1A	-o-	2g]	.	1cc	de-
.	.	.	.	2c	.	.	.	2f	.	.	.
.	.	.	.	[1d	-nem	2G	-nem	2g	-pre-	[1b-	-pre-
.	.	.	.	.	.	[2G	no-	4G	-ca-	.	.
.	.	.	.	.	.	.	.	4A	.	.	.
=128	=128	=128	=128	=128	=128	=128	=128	=128	=128	=128	=128
0r	.	0r	.	2d]	.	2G]	.	4B-	.	2b-]	.
.	.	.	.	.	.	.	.	4c	.	.	.
.	.	.	.	2.d	no-	4F	.	4d	.	4a	.
.	.	.	.	.	.	4E	.	4e	.	4g	.
.	.	.	.	.	.	1D	-stram.	[1f	.	1a	-ca-
.	.	.	.	4c	.	.	.	.	.	.	.
.	.	.	.	2A	.	.	.	.	.	.	.
=129	=129	=129	=129	=129	=129	=129	=129	=129	=129	=129	=129
0r	.	0r	.	1B-	.	0r	.	2f]	.	2d	-ti-
.	.	.	.	.	.	.	.	2f	-ti-	2dd	-o-
.	.	.	.	2A	.	.	.	1f	-o-	2cc	.
.	.	.	.	2B-	.	.	.	.	.	[2dd	.
=130	=130	=130	=130	=130	=130	=130	=130	=130	=130	=130	=130
0r	.	0r	.	1G	-stram,	0r	.	1g	.	2dd]	.
.	.	.	.	.	.	.	.	.	.	4cc	.
.	.	.	.	.	.	.	.	.	.	4b-	.
.	.	.	.	2r	.	.	.	2f	-nem	2.a	.
.	.	.	.	2D	no-	.	.	[2f	no-	.	.
.	.	.	.	.	.	.	.	.	.	4g	.
=131	=131	=131	=131	=131	=131	=131	=131	=131	=131	=131	=131
0r	.	0r	.	2F	.	0r	.	4f]	.	2a	.
.	.	.	.	.	.	.	.	4e	.	.	.
.	.	.	.	2G	.	.	.	1d	.	2b-	-nem
.	.	.	.	1E	.	.	.	.	.	1g	no-
.	.	.	.	.	.	.	.	2c#i	.	.	.
=132	=132	=132	=132	=132	=132	=132	=132	=132	=132	=132	=132
0r	.	2r	.	1D	-stram,	1A	Qui	1.d	-stram.	1f	-stram.
.	.	2F	Qui	.	.	.	.	.	.	.	.
.	.	2G	se-	1r	.	2B-	se-	.	.	1r	.
.	.	2E	.	.	.	2G	.	[2g	Qui	.	.
=133	=133	=133	=133	=133	=133	=133	=133	=133	=133	=133	=133
2r	.	1D	-des,	1d	Qui	1A	.	4g]	.	1a	Qui
.	.	.	.	.	.	.	.	4e	.	.	.
2F	ad	.	.	.	.	.	.	2f	se-	.	.
2G	de-	1r	.	2B-	se-	1G	.	2d	-des	2b-	se-
2E	-xte-	.	.	2c	.	.	.	[2g	ad	2g	.
=134	=134	=134	=134	=134	=134	=134	=134	=134	=134	=134	=134
1D	-ram	2r	.	2A	-des	1d	-des	4g]	.	1a	.
.	.	.	.	.	.	.	.	4e	de-	.	.
.	.	2F	Pa-	2A	ad	.	.	2f	-xte-	.	.
1r	.	2G	.	2B-	de-	1r	.	2d	-ram	1g	-des
.	.	2E	.	2G	-xte-	.	.	[2g	Pa-	.	.
=135	=135	=135	=135	=135	=135	=135	=135	=135	=135	=135	=135
2r	.	1D	-tris,	2A	-ram	1d	Pa-	4g]	.	2r	.
.	.	.	.	.	.	.	.	4e	.	.	.
2F	Pa-	.	.	2A	Pa-	.	.	2f	.	2a	ad
2G	.	1r	.	1G	-tris,	2B-	.	2d	.	2b-	de-
2E	.	.	.	.	.	2c	.	2e	-tris,	2g	-xte-
=136	=136	=136	=136	=136	=136	=136	=136	=136	=136	=136	=136
0D	-tris,	2r	.	1d	mi-	2A	-tris,	0f	mi-	1a	-ram
.	.	2D	mi-	.	.	1A	mi-	.	.	.	.
.	.	2.A	-se-	2d	-se-	.	.	.	.	1a	Pa-
.	.	.	.	[2d	-re-	2F	-se-	.	.	.	.
.	.	4G	.	.	.	.	.	.	.	.	.
=137	=137	=137	=137	=137	=137	=137	=137	=137	=137	=137	=137
1D	mi-	2F	.	4d]	.	2A	-re-	1f	-se-	1d	-tris,
.	.	.	.	4c	.	.	.	.	.	.	.
.	.	2D	.	1B-	.	2B-	.	.	.	.	.
1C	-se-	1E	-re-	.	.	1c	-re	1e	-re-	1r	.
.	.	.	.	2A	.	.	.	.	.	.	.
=138	=138	=138	=138	=138	=138	=138	=138	=138	=138	=138	=138
0BB-	-re-	2.F	-re	1B-	-re	1d	no-	0d	-re	1dd	mi-
.	.	4E	.	.	.	.	.	.	.	.	.
.	.	2F	.	2r	.	[1D	-bis.	.	.	2dd	-se-
.	.	[2G	no-	[2B-	no-	.	.	.	.	2dd	-re-
=139	=139	=139	=139	=139	=139	=139	=139	=139	=139	=139	=139
1GG	-re	2G]	.	2B-]	.	0D]	.	0d	no-	1.b-	-re
.	.	4F	.	4A	.	.	.	.	.	.	.
.	.	4E	.	4G	.	.	.	.	.	.	.
[1D	no-	[1D	.	2.B-	.	.	.	.	.	.	.
.	.	.	.	.	.	.	.	.	.	4a	.
.	.	.	.	4c	.	.	.	.	.	4g	.
=140	=140	=140	=140	=140	=140	=140	=140	=140	=140	=140	=140
0D]	.	2D]	.	2A	.	1r	.	0d	-bis.	2f	.
.	.	2E	.	2G	.	.	.	.	.	1g	no-
.	.	1F	.	1A	.	2r	.	.	.	.	.
.	.	.	.	.	.	2d	Quo-	.	.	2f#i	.
=141	=141	=141	=141	=141	=141	=141	=141	=141	=141	=141	=141
[0GG	-bis.	1D	-bis.	[0G	-bis.	2B-	-ni-	2r	.	1g	-bis.
.	.	.	.	.	.	2.d	-am	2d	Quo-	.	.
.	.	2r	.	.	.	.	.	2B-	-ni-	2r	.
.	.	.	.	.	.	4c	.	.	.	.	.
.	.	2B-	Quo-	.	.	[2B-	.	[2d	-am	2dd	Quo-
=142	=142	=142	=142	=142	=142	=142	=142	=142	=142	=142	=142
0GG_	.	2G	-ni-	0G]	.	4B-]	.	4d]	.	2b-	-ni-
.	.	.	.	.	.	4A	.	4c	.	.	.
.	.	2.B-	-am	.	.	4G	.	4B-	.	2.dd	-am
.	.	.	.	.	.	8FL	.	4A	.	.	.
.	.	.	.	.	.	8EJ	.	.	.	.	.
.	.	.	.	.	.	1D	.	[1G	.	.	.
.	.	4A	.	.	.	.	.	.	.	4cc	.
.	.	[2G	tu	.	.	.	.	.	.	[2b-	tu
=143	=143	=143	=143	=143	=143	=143	=143	=143	=143	=143	=143
0GG_	.	2G]	.	0r	.	1.d	tu	1G]	.	2b-]	.
.	.	4F	.	.	.	.	.	.	.	4a	.
.	.	4E	.	.	.	.	.	.	.	4g	.
.	.	2D	.	.	.	.	.	2A	tu	2f	.
.	.	2C	so-	.	.	2e	.	2c	.	[2g	so-
=144	=144	=144	=144	=144	=144	=144	=144	=144	=144	=144	=144
0GG]	.	1G	-lus	0r	.	2d	so-	2d	so-	4g]	.
.	.	.	.	.	.	.	.	.	.	4f	.
.	.	.	.	.	.	2B-	-lus	2e	-lus	1b-	-lus
.	.	1F	san-	.	.	1c	san-	1f	san-	.	.
.	.	.	.	.	.	.	.	.	.	2a	san-
=145	=145	=145	=145	=145	=145	=145	=145	=145	=145	=145	=145
2r	.	1BB-	-ctus,	2r	.	1B-	-ctus,	0d	-ctus,	[0b-	-ctus,
2B-	Tu	.	.	2d	Tu	.	.	.	.	.	.
2G	so-	1r	.	2B-	so-	1r	.	.	.	.	.
[2B-	.	.	.	[2d	.	.	.	.	.	.	.
=146	=146	=146	=146	=146	=146	=146	=146	=146	=146	=146	=146
4B-]	.	0r	.	4d]	.	2r	.	0r	.	1b-]	.
4A	.	.	.	4c	.	.	.	.	.	.	.
1G	.	.	.	1B-	.	2d	tu	.	.	.	.
.	.	.	.	.	.	2B-	so-	.	.	1r	.
4F	.	.	.	4A	.	[2d	.	.	.	.	.
4E	.	.	.	4G	.	.	.	.	.	.	.
=147	=147	=147	=147	=147	=147	=147	=147	=147	=147	=147	=147
2D	-lus	0r	.	2F	-lus	4d]	.	0r	.	0r	.
.	.	.	.	.	.	4c	.	.	.	.	.
1GG	Do-	.	.	1G	Do-	1B-	.	.	.	.	.
2AA	.	.	.	4F	.	4A	.	.	.	.	.
.	.	.	.	4E	.	4G	.	.	.	.	.
=148	=148	=148	=148	=148	=148	=148	=148	=148	=148	=148	=148
2BB-	.	0r	.	2D	.	2F	-lus	0r	.	0r	.
2C	.	.	.	2E	.	2.A	Do-	.	.	.	.
2D	.	.	.	2F	.	.	.	.	.	.	.
.	.	.	.	.	.	4G	.	.	.	.	.
2BB-	.	.	.	2G	.	[2G	-mi-	.	.	.	.
=149	=149	=149	=149	=149	=149	=149	=149	=149	=149	=149	=149
1AA	-mi-	1r	.	1A	-mi-	2G]	.	0r	.	1r	.
.	.	.	.	.	.	2F#i	.	.	.	.	.
[1GG	-nus,	2r	.	[1D	-nus,	[1G	-nus,	.	.	2r	.
.	.	2B-	tu	.	.	.	.	.	.	2dd	tu
=150	=150	=150	=150	=150	=150	=150	=150	=150	=150	=150	=150
0GG]	.	2G	so-	0D]	.	0G]	.	1r	.	2b-	so-
.	.	2.B-	.	.	.	.	.	.	.	2.dd	.
.	.	.	.	.	.	.	.	2r	.	.	.
.	.	4A	.	.	.	.	.	.	.	4cc	.
.	.	[2G	.	.	.	.	.	2d	tu	[2b-	.
=151	=151	=151	=151	=151	=151	=151	=151	=151	=151	=151	=151
0r	.	2G]	.	0r	.	0r	.	2B-	so-	2b-]	.
.	.	4F	.	.	.	.	.	2.d	.	4a	.
.	.	4E	.	.	.	.	.	.	.	4g	.
.	.	2D	-lus	.	.	.	.	.	.	2f	.
.	.	.	.	.	.	.	.	4c	.	.	.
.	.	2GG	Al-	.	.	.	.	[2B-	.	2g	.
=152	=152	=152	=152	=152	=152	=152	=152	=152	=152	=152	=152
0r	.	2BB-	-tis-	0r	.	0r	.	2B-]	.	2d	-lus
.	.	2C	.	.	.	.	.	4A	.	2e	Al-
.	.	.	.	.	.	.	.	4G	.	.	.
.	.	1D	.	.	.	.	.	2F	-lus	4f	-ti-
.	.	.	.	.	.	.	.	.	.	4g	.
.	.	.	.	.	.	.	.	2f	Al-	4a	.
.	.	.	.	.	.	.	.	.	.	4f	.
=153	=153	=153	=153	=153	=153	=153	=153	=153	=153	=153	=153
1r	.	2C	-si-	1r	.	1r	.	2e	-tis-	2g	.
.	.	2D	.	.	.	.	.	1d	-si-	2f	.
1AA	Je-	2AA	-mus,	[1A	Je-	1E	Je-	.	.	1e	-si-
.	.	[2A	Je-	.	.	.	.	2c#i	.	.	.
=154	=154	=154	=154	=154	=154	=154	=154	=154	=154	=154	=154
1D	-su	2A]	.	1A]	.	1F	-su	0d	-mus,	2d	-mus,
.	.	2F	.	.	.	.	.	.	.	1dd	Je-
1GG	Chri-	1G	.	1B-	-su	1D	.	.	.	.	.
.	.	.	.	.	.	.	.	.	.	2b-	-su
=155	=155	=155	=155	=155	=155	=155	=155	=155	=155	=155	=155
1C	-ste,	2C	-su	1G	.	0E	Chri-	1r	.	0cc	Chri-
.	.	2.c	Chris-	.	.	.	.	.	.	.	.
1AA	Je-	.	.	[1A	Chri-	.	.	1e	Je-	.	.
.	.	4B-	.	.	.	.	.	.	.	.	.
.	.	4A	.	.	.	.	.	.	.	.	.
.	.	4G	.	.	.	.	.	.	.	.	.
=156	=156	=156	=156	=156	=156	=156	=156	=156	=156	=156	=156
1D	-su	4F	.	1A]	.	2D	-ste,	1f	-su	1a	-ste,
.	.	4G	.	.	.	.	.	.	.	.	.
.	.	4A	.	.	.	1d	Je-	.	.	.	.
.	.	4F	.	.	.	.	.	.	.	.	.
1GG	Chri-	1G	-te,	[1G	-ste.	.	.	1d	.	1b-	Je-
.	.	.	.	.	.	2B-	.	.	.	.	.
=157	=157	=157	=157	=157	=157	=157	=157	=157	=157	=157	=157
1C	-ste,	0E	Je-	1G]	.	0c	-su	0e	Chri-	1g	-su
1AA	Je-	.	.	1r	.	.	.	.	.	[1a	Chri-
=158	=158	=158	=158	=158	=158	=158	=158	=158	=158	=158	=158
1D	-su	1F	-su	0r	.	2A	Chri-	2d	-ste,	1a]	.
.	.	.	.	.	.	1A	.	1f	Chri-	.	.
1BB-	Chri-	1D	.	.	.	.	.	.	.	1d	-ste.
.	.	.	.	.	.	2G	.	4e	.	.	.
.	.	.	.	.	.	.	.	4d	.	.	.
=159	=159	=159	=159	=159	=159	=159	=159	=159	=159	=159	=159
0AA	-ste.	0E	Chris-	0r	.	0A	.	2c	.	0r	.
.	.	.	.	.	.	.	.	1d	.	.	.
.	.	.	.	.	.	.	.	2c#i	-ste.	.	.
=160	=160	=160	=160	=160	=160	=160	=160	=160	=160	=160	=160
*M3/1	*	*M3/1	*	*M3/1	*	*M3/1	*	*M3/1	*	*M3/1	*
*met(3)	*	*met(3)	*	*met(3)	*	*met(3)	*	*met(3)	*	*met(3)	*
0.r	.	0D	-te.	0d	Cum	0A	-ste.	0f	Cum	0a	Cum
.	.	1r	.	1B-	San-	1r	.	1d	San-	1b-	San-
=161	=161	=161	=161	=161	=161	=161	=161	=161	=161	=161	=161
0.r	.	0.r	.	0c	-cto	0.r	.	2.e	-cto	1g	-cto
.	.	.	.	.	.	.	.	4f	.	.	.
.	.	.	.	.	.	.	.	2g	.	1cc	Spi-
.	.	.	.	.	.	.	.	2e	.	.	.
.	.	.	.	1d	.	.	.	1f	.	2b-	.
.	.	.	.	.	.	.	.	.	.	2a	.
=162	=162	=162	=162	=162	=162	=162	=162	=162	=162	=162	=162
0.r	.	0.r	.	1c	Spi-	0.r	.	1e	.	0a	.
.	.	.	.	0B-	-ri-	.	.	0d	ri-	.	.
.	.	.	.	.	.	.	.	.	.	1g	-ri-
=163	=163	=163	=163	=163	=163	=163	=163	=163	=163	=163	=163
0D	Cum	0F	Cum	0A	-tu	0A	Cum	0.d	-tu	0a	-tu
1BB-	San-	1D	San-	1r	.	1B-	San-	.	.	1r	.
=164	=164	=164	=164	=164	=164	=164	=164	=164	=164	=164	=164
0C	-cto	2.E	-cto	0.r	.	1G	-cto	0.r	.	0.r	.
.	.	4F	.	.	.	.	.	.	.	.	.
.	.	2G	.	.	.	1c	Spi-	.	.	.	.
.	.	2E	.	.	.	.	.	.	.	.	.
1D	.	1F	.	.	.	2B-	.	.	.	.	.
.	.	.	.	.	.	2A	.	.	.	.	.
=165	=165	=165	=165	=165	=165	=165	=165	=165	=165	=165	=165
1C	Spi-	0E	Spi-	0.r	.	1.A	.	0.r	.	0.r	.
0BB-	-ri-	.	.	.	.	.	.	.	.	.	.
.	.	.	.	.	.	2F	.	.	.	.	.
.	.	1D	-ri-	.	.	1G	-ri-	.	.	.	.
=166	=166	=166	=166	=166	=166	=166	=166	=166	=166	=166	=166
0.AA	-tu	0.E	-tu	1c	in	0.A	-tu	1e	in	1.a	in
.	.	.	.	1c	glo-	.	.	1e	glo-	.	.
.	.	.	.	.	.	.	.	.	.	2b-	.
.	.	.	.	1A	-ri-	.	.	1e	-ri-	1cc	glo-
=167	=167	=167	=167	=167	=167	=167	=167	=167	=167	=167	=167
0.r	.	0.r	.	0B-	-a	0.r	.	2.d	-a	2.dd	-ri-
.	.	.	.	.	.	.	.	4e	.	4cc	.
.	.	.	.	.	.	.	.	2f	.	2.b-	.
.	.	.	.	.	.	.	.	2d	.	.	.
.	.	.	.	.	.	.	.	.	.	4a	.
.	.	.	.	1c	De-	.	.	1e	De-	1g	-a
=168	=168	=168	=168	=168	=168	=168	=168	=168	=168	=168	=168
0.r	.	0.r	.	1B-	-i	1r	.	1d	-i	1b-	De-
.	.	.	.	1c	.	1r	.	1e	.	2a	-i
.	.	.	.	.	.	.	.	.	.	1g	.
.	.	.	.	1A	Pa-	1A	in	2.c	Pa-	.	.
.	.	.	.	.	.	.	.	.	.	2f#i	.
.	.	.	.	.	.	.	.	4d	.	.	.
=169	=169	=169	=169	=169	=169	=169	=169	=169	=169	=169	=169
1C	in	1G	in	0G	-tris,	0c	glo-	0.e	-tris,	0g	tris,
1C	glo-	1G	glo-	.	.	.	.	.	.	.	.
1AA	-ri-	2.A	-ri-	1r	.	1c	-ri-	.	.	1r	.
.	.	4G	.	.	.	.	.	.	.	.	.
=170	=170	=170	=170	=170	=170	=170	=170	=170	=170	=170	=170
0BB-	-a	2.F	.	0.r	.	2.d	-a	0.r	.	0.r	.
.	.	4E	.	.	.	4c	.	.	.	.	.
.	.	1D	-a	.	.	2.B-	.	.	.	.	.
.	.	.	.	.	.	4A	.	.	.	.	.
1C	De-	1E	De-	.	.	1G	.	.	.	.	.
=171	=171	=171	=171	=171	=171	=171	=171	=171	=171	=171	=171
1BB-	-i	1D	-i	0.r	.	1B-	De-	1r	.	0.r	.
1C	.	1E	.	.	.	2A	-i	1r	.	.	.
.	.	.	.	.	.	1G	Pa-	.	.	.	.
1AA	Pa-	1C	Pa-	.	.	.	.	1A	De-	.	.
.	.	.	.	.	.	2F#i	.	.	.	.	.
=172	=172	=172	=172	=172	=172	=172	=172	=172	=172	=172	=172
0.GG	-tris,	0D	-tris,	0d	De-	0.G	-tris,	1B-	-i	0.r	.
.	.	.	.	.	.	.	.	2.G	Pa-	.	.
.	.	.	.	.	.	.	.	4A	.	.	.
.	.	1r	.	1G	-i	.	.	2.B-	.	.	.
.	.	.	.	.	.	.	.	4c	.	.	.
=173	=173	=173	=173	=173	=173	=173	=173	=173	=173	=173	=173
1r	.	0D	De-	1A	Pa-	1r	.	0d	-tris,	0f	De-
1r	.	.	.	0B-	.	1r	.	.	.	.	.
1G	De-	1GG	-i	.	.	1d	De-	1r	.	1b-	-i
=174	=174	=174	=174	=174	=174	=174	=174	=174	=174	=174	=174
1E	-i	1C	Pa-	0c	.	2.en	.	0c	De-	1g	.
.	.	.	.	.	.	4d	.	.	.	.	.
0F	Pa-	1AA	.	.	.	2.c	.	.	.	0a	Pa-
.	.	.	.	.	.	4B-	.	.	.	.	.
.	.	1D	.	1d	-tris,	1A	-i	1f	-i	.	.
=175	=175	=175	=175	=175	=175	=175	=175	=175	=175	=175	=175
1G	.	1GG	.	1B-	De-	1B-	Pa-	1d	.	0g	-tris,
0E	.	0C	.	0c	-i	0G	-tris,	0e	Pa-	.	.
.	.	.	.	.	.	.	.	.	.	1r	.
=176	=176	=176	=176	=176	=176	=176	=176	=176	=176	=176	=176
1F	.	0D	-tris,	0A	Pa-	1r	.	0d	-tris,	0f	De-
1D	-tris,	.	.	.	.	1r	.	.	.	.	.
1GG	De-	1G	De-	1B-	.	1d	De-	1r	.	1b-	-i
=177	=177	=177	=177	=177	=177	=177	=177	=177	=177	=177	=177
1C	-i	1E	-i	0c	.	2.e	.	0c	De-	1g	.
.	.	.	.	.	.	4d	.	.	.	.	.
1AA	Pa-	0F	Pa-	.	.	2.c	.	.	.	0a	Pa-
.	.	.	.	.	.	4B-	.	.	.	.	.
1D	.	.	.	1d	.	1A	-i	1f	-i	.	.
=178	=178	=178	=178	=178	=178	=178	=178	=178	=178	=178	=178
1GG	.	1G	.	1B-	.	1B-	Pa-	1d	.	0.g	-tris.
0C	.	1.E	.	0c	.	[0G	-tris.	0e	Pa-	.	.
.	.	2F	.	.	.	.	.	.	.	.	.
=179	=179	=179	=179	=179	=179	=179	=179	=179	=179	=179	=179
*M2/1	*	*M2/1	*	*M2/1	*	*M2/1	*	*M2/1	*	*M2/1	*
*met(C|)	*	*met(C|)	*	*met(C|)	*	*met(C|)	*	*met(C|)	*	*met(C|)	*
0GG	-tris.	0G	.	2B-	-tris.	0G]	.	0d	-tris.	0b-	A-
.	.	.	.	2G	A-	.	.	.	.	.	.
.	.	.	.	2.B-	.	.	.	.	.	.	.
.	.	.	.	4c	.	.	.	.	.	.	.
=180	=180	=180	=180	=180	=180	=180	=180	=180	=180	=180	=180
1r	.	0D	-tris.	[0d	.	1A	A-	0f	A-	0a	.
[1D	A-	.	.	.	.	2.F	.	.	.	.	.
.	.	.	.	.	.	4G	.	.	.	.	.
=181	=181	=181	=181	=181	=181	=181	=181	=181	=181	=181	=181
0D]	.	1r	.	0d]	.	2A	.	[0f	-men,	[0dd	.
.	.	.	.	.	.	1B-	.	.	.	.	.
.	.	[1F	A-	.	.	.	.	.	.	.	.
.	.	.	.	.	.	2A	.	.	.	.	.
=182	=182	=182	=182	=182	=182	=182	=182	=182	=182	=182	=182
0BB-	.	1F]	.	1.d	.	1.B-	.	1f]	.	0dd]	.
.	.	1D	.	.	.	.	.	2r	.	.	.
.	.	.	.	2B-	.	2F	-men,	[2f	a-	.	.
=183	=183	=183	=183	=183	=183	=183	=183	=183	=183	=183	=183
0C	.	[1E	.	2A	.	1.c	.	2f]	.	0cc	.
.	.	.	.	4G	.	.	.	4e	.	.	.
.	.	.	.	4F	.	.	.	4d	.	.	.
.	.	2E]	.	1G	.	.	.	1e	.	.	.
.	.	2C	.	.	.	[2c	.	.	.	.	.
=184	=184	=184	=184	=184	=184	=184	=184	=184	=184	=184	=184
0FF	-men,	1C	-men,	0F	-men,	4c]	.	0f	-men,	1a	-men,
.	.	.	.	.	.	4B-	.	.	.	.	.
.	.	.	.	.	.	4A	.	.	.	.	.
.	.	.	.	.	.	4G	.	.	.	.	.
.	.	2r	.	.	.	1F	.	.	.	[1cc	.
.	.	[2C	a-	.	.	.	.	.	.	.	.
=185	=185	=185	=185	=185	=185	=185	=185	=185	=185	=185	=185
0C	.	2C]	.	1r	.	1G	.	0e	.	1cc]	.
.	.	2D	.	.	.	.	.	.	.	.	.
.	.	2E	.	1G	a-	1c	.	.	.	[1g	.
.	.	2C	.	.	.	.	.	.	.	.	.
=186	=186	=186	=186	=186	=186	=186	=186	=186	=186	=186	=186
[0GGl	men.	0G	.	[0Gl	.	[0B-l	men.	[0dl	men.	1g]	.
.	.	.	.	.	.	.	.	.	.	[1dd	.
=187	=187	=187	=187	=187	=187	=187	=187	=187	=187	=187	=187
0GG_	.	[0Dl	.	0G_	.	0B-_	.	0d_	.	1dd]	.
.	.	.	.	.	.	.	.	.	.	1b-	.
=188	=188	=188	=188	=188	=188	=188	=188	=188	=188	=188	=188
0GG]	.	0D]	.	0G]	.	0B-]	.	0d]	.	0b-l	men.
==	==	==	==	==	==	==	==	==	==	==	==
*-	*-	*-	*-	*-	*-	*-	*-	*-	*-	*-	*-
!!!RDF**kern: l=long note in original notation
!!!RDF**kern: i=editorial accidental
!!!ENC: Stephanie P. Schlagel 2016/05/22
!!!END: 2016/05/22/
!!!EED: Jesse Rodin
!!!EEV: 2016/05/30/
!!!ONB: Translated from MusicXML and edited on 2016/05/30/ by Craig Sapp
!!muse2ps: T^@{OPR}^u^@{ONM}{. }@{OTL}^C^@{COM}^i2I150v100,100,100,100,100,120Q16z18c65
